X: 861
T: Gönlüm Seher Yeli Gibi
C: Sadettin Kaynak
O: Turkey
F: http://compmusic.upf.edu/node/140
N: huzzam--sarki--aksak--gonlum_seher--sadettin_kaynak
N: makam= huzzam
N: form= sarki
N: usul= aksak = 9/8
M: 9/8
L: 1/16
K: C _1/4B _3/4e ^3/4f 
Q: 1/4=264
%%MIDI tuningsystem comma53
g3f g3f g4 fgag fe | f3ef3ef4ef gfed  | 
w:  ARANAĞME  |   | 
e2{f}ed e2{f}ed e2d2 g2f2 e2 | de dcB2 c2d4cd efg2  | 
w:   |   | 
g3f g3f g4 fgag fe | f3ef3ef4ef gfed  | 
w:  ARANAĞME  |   | 
e2{f}ed e2{f}ed e2d2 g2f2 e2 | de fedc B^AB8-B2  | 
w:   |   | 
g12 a2g2 gf | f2 f2f8g2 f2e2  | e2e2 e6d2 g2f2 e2 | \
w:  Gön lüm  *  se  |  her   |  ye *  *  *  li  *  gi  | 
d6 B2c2 d2e2 f2g2  | 
w:  bi   SAZ  | 
g12 a2g2 gf | f2 f2f8g2 f2e2  | e2e2 e6d2 g2f2 e2 | \
w:  Dal dan  *  da  |  la   |  es *  *  *  sem  *  di  | 
d4z2 _b2a2 g2f2 g2a2  | 
w:  yor SAZ  | 
a12 _b2a2 g2 | {g}c'8c'4_b2 a2g2  | f2f2 f8 =e4 .f2 | \
w:  Coş sam  *  ba  |  *  har   |  se *  *  li  gi  | 
g4z2 _b2a2 g2f2 e2d2  | 
w:  bi   SAZ  | 
d12 _1/4e2c2 cB | B12g2 f2e2  | d12 _1/4e2c2 cB | \
w:  Set ler  *  yı  |  kıp   |  geç sem  *  di  | 
B4z2 _b2a2 g2f2 g2a2  | 
w:  yor   SAZ  | 
a12 _b2a2 g2 | {g}c'8c'4_b2 a2g2  | f2f2 f8 =e4 .f2 | \
w:  Coş sam  *  ba  |  *  har   |  se *  *  li  gi  | 
g4z2 _b2a2 g2f2 e2d2  | 
w:  bi   SAZ  | 
d12 _1/4e2c2 cB | B12g2 f2e2  | d12 _1/4e2c2 cB | \
w:  Set ler  *  yı  |  kıp   |  geç sem  *  di  | 
B6 .G2.^A2 .G2B4z2  | g3f g3f g4 fgag fe | 
w:  yor   SAZ  |  ARANAĞME  | 
f3ef3ef4ef gfed  | e2{f}ed e2{f}ed e2d2 g2f2 e2 | 
w:   |   | 
de dcB2 c2d4cd efg2  | g3f g3f g4 fgag fe | 
w:   |  ARANAĞME  | 
f3ef3ef4ef gfed  | e2{f}ed e2{f}ed e2d2 g2f2 e2 | 
w:   |   | 
de fedc B^AB8-B2  | f2{f}g6 g4 g6 | g2 a4 g2gf gagf3_1/4e2  | 
w:   |  Ha *  zan  vak ti   |  e riş *  me *  *  *  den    | 
f2g6 g4 g6 | g2 a4 g2gf gagf3_1/4e2  | \
w:  E cel  ge lip   |  ye tiş *  me *  *  *  den    | 
d2e4e2 e8 d2 | d2 e4 g2f2 e2d4z2  | 
w:  o  çeş me den   |  bu  çeş me den    | 
g2a4_b2 a2g2 f2e2 d2 | d3cB2 c2d4cd efg2  | \
w:  Ka na  ka na  *  iç  |  sem  *  *  di yor   SAZ  | 
g12 a2g2 gf | 
w:  Gön lüm  *  se  | 
f2 f2f8g2 f2e2  | e2e2 e6d2 g2f2 e2 | \
w:  her   |  ye *  *  *  li  *  gi  | 
d6 B2c2 d2e2 f2g2  | g12 a2g2 gf | 
w:  bi   SAZ  |  Dal dan  *  da  | 
f2 f2f8g2 f2e2  | e2e2 e6d2 g2f2 e2 | \
w:  la   |  es *  *  *  sem  *  di  | 
d4z2 _b2a2 g2f2 g2a2  | 
w:  yor SAZ  | 
a12 _b2a2 g2 | {g}c'8c'4_b2 a2g2  | f2f2 f8 =e4 .f2 | \
w:  Coş sam  *  ba  |  *  har   |  se *  *  li  gi  | 
g4z2 _b2a2 g2f2 e2d2  | 
w:  bi   SAZ  | 
d12 _1/4e2c2 cB | B12g2 f2e2  | d12 _1/4e2c2 cB | \
w:  Set ler  *  yı  |  kıp   |  geç sem  *  di  | 
B4z2 _b2a2 g2f2 g2a2  | 
w:  yor   SAZ  | 
a12 _b2a2 g2 | {g}c'8c'4_b2 a2g2  | f2f2 f8 =e4 .f2 | \
w:  Coş sam  *  ba  |  *  har   |  se *  *  li  gi  | 
g4z2 _b2a2 g2f2 e2d2  | 
w:  bi   SAZ  | 
d12 _1/4e2c2 cB | B12g2 f2e2  | d12 _1/4e2c2 cB | \
w:  Set ler  *  yı  |  kıp   |  geç sem  *  di  | 
B6 .G2.^A2 .G2B4z2  | ^c2d6 d2c2 d4 z2 | 
w:  yor   SAZ  |  Bu gün  gör *  düm   | 
=e2 g2=f2 e2{e}d2 ^c2d4z2  | =e3d ^c2d2 e2g2 =f2e2 d2 | \
w:  i ki  *  *  *  ci *  van    |  SAZ  | 
=e3d^c2 d2c2 d2B4z2  | 
w:   | 
^c2d6 d2c2 d6 | =e2 g2=f2 e2{e}d2 ^c2d4z2  | \
w:  Di zim de  *  kal  |  ma dı  *  *  *  der *  man    | 
=e3d ^c2d2 e2g2 f2e2 d2 | 
w:  SAZ  | 
g3^f=e2 f2g2 f2g4z2  | ^f2g6 g2f2 g4 z2 | \
w:   |  Bi ri  can *  dır   | 
g2 a4 b2a2 g2f2 =e2d2  | 
w:  bi ri  *  câ *  nân   | 
d12 =e4 ^f2 | g12a2 g2a2  | b12 c'2b2 a2 | \
w:  Han gi si  |  ni   |  seç sem  *  di  | 
g6 .d2._1/4e2 .f2g6  | g12 a2g2 gf | 
w:  yor   SAZ  |  Gön lüm  *  se  | 
f2 f2f8g2 f2e2  | e2e2 e6d2 g2f2 e2 | \
w:  her   |  ye *  *  *  li  *  gi  | 
d6 B2c2 d2e2 f2g2  | g12 a2g2 gf | 
w:  bi   SAZ  |  Dal dan  *  da  | 
f2 f2f8g2 f2e2  | e2e2 e6d2 g2f2 e2 | \
w:  la   |  es *  *  *  sem  *  di  | 
d4z2 _b2a2 g2f2 g2a2  | 
w:  yor SAZ  | 
a12 _b2a2 g2 | {g}c'8c'4_b2 a2g2  | f2f2 f8 =e4 .f2 | \
w:  Coş sam  *  ba  |  *  har   |  se *  *  li  gi  | 
g4z2 _b2a2 g2f2 e2d2  | 
w:  bi   SAZ  | 
d12 _1/4e2c2 cB | B12g2 f2e2  | d12 _1/4e2c2 cB | \
w:  Set ler  *  yı  |  kıp   |  geç sem  *  di  | 
B4z2 _b2a2 g2f2 g2a2  | 
w:  yor   SAZ  | 
a12 _b2a2 g2 | {g}c'8c'4_b2 a2g2  | f2f2 f8 =e4 .f2 | \
w:  Coş sam  *  ba  |  *  har   |  se *  *  li  gi  | 
g4z2 _b2a2 g2f2 e2d2  | 
w:  bi   SAZ  | 
d12 _1/4e2c2 cB | B12g2 f2e2  | d12 _1/4e2c2 cB | \
w:  Set ler  *  yı  |  kıp   |  geç sem  *  di  | 
B6 .G2.^A2 .G2B4z2  | |


